dist/svg/static/torque-large.svg

<svg xmlns="http://www.w3.org/2000/svg" width="48" height="48" viewBox="0 0 48 48"><g fill="none" stroke="currentColor" stroke-miterlimit="10"><path d="M25.137 14.5v2.67c.6.155 1.164.39 1.684.696l1.887-1.885 2.315 2.312-1.89 1.89c.308.517.544 1.084.699 1.683H32.5v3.272h-2.668a6.48 6.48 0 0 1-.697 1.682l1.886 1.889-2.313 2.312-1.887-1.887a6.5 6.5 0 0 1-1.683.698V32.5h-3.274v-2.668a6.483 6.483 0 0 1-1.683-.698l-1.887 1.887-2.313-2.312 1.885-1.89a6.484 6.484 0 0 1-.697-1.681H14.5v-3.272h2.67c.155-.6.389-1.166.697-1.684l-1.888-1.889 2.315-2.312 1.887 1.885a6.555 6.555 0 0 1 1.684-.696V14.5h3.272zM23.5 23v1M14.723 4.742a4.977 4.977 0 0 1 2.346 1.341l1.872-1.124L20.25 7.08l-1.944 1.168a4.84 4.84 0 0 1-.015 2.544l1.959 1.184-1.31 2.12-1.915-1.153a4.977 4.977 0 0 1-2.302 1.298V16.5h-2.518v-2.278a4.978 4.978 0 0 1-2.225-1.274l-1.92 1.149-1.31-2.121L8.713 10.8A4.84 4.84 0 0 1 8.708 8.2L6.845 7.08l1.309-2.12 1.813 1.088a4.977 4.977 0 0 1 2.239-1.288V2.5h2.517v2.242zM13.5 9v1"/><g><path d="M6.5 21.61v1.89c0 9.389 7.611 17 17 17s17-7.611 17-17-7.611-17-17-17"/><path d="M10.743 25.743L6.5 21.5l-4.243 4.243"/></g></g></svg>

<?xml version="1.0" encoding="UTF-8" standalone="no"?>
<svg width="48px" height="48px" viewBox="0 0 48 48" version="1.1" xmlns="http://www.w3.org/2000/svg" xmlns:xlink="http://www.w3.org/1999/xlink">
    <!-- Generator: sketchtool 46.2 (44496) - http://www.bohemiancoding.com/sketch -->
    <title>torque-large</title>
    <desc>Created with sketchtool.</desc>
    <defs></defs>
    <g id="icons-published" stroke="none" stroke-width="1" fill="none" fill-rule="evenodd">
        <g id="briefing" transform="translate(-3744.000000, -2074.000000)"></g>
        <g id="torque-large" stroke="#000000">
            <path d="M25.1,14.5 L25.1,17.2 C25.7,17.4 26.3,17.6 26.8,17.9 L28.7,16 L31,18.3 L29.1,20.2 C29.4,20.7 29.6,21.3 29.8,21.9 L32.5,21.9 L32.5,25.2 L29.8,25.2 C29.6,25.8 29.4,26.4 29.1,26.9 L31,28.8 L28.7,31 L26.8,29.1 C26.3,29.4 25.7,29.6 25.1,29.8 L25.1,32.5 L21.8,32.5 L21.8,29.8 C21.2,29.6 20.6,29.4 20.1,29.1 L18.3,31 L16,28.7 L17.9,26.8 C17.6,26.3 17.4,25.7 17.2,25.1 L14.5,25.1 L14.5,21.8 L17.2,21.8 C17.4,21.2 17.6,20.6 17.9,20.1 L16,18.3 L18.3,16 L20.2,17.9 C20.7,17.6 21.3,17.4 21.9,17.2 L21.9,14.5 L25.1,14.5 Z M23.5,23 L23.5,24 L23.5,23 Z M14.7,4.7 C15.6,4.9 16.4,5.4 17,6 L18.9,5 L20.2,7.1 L18.3,8.3 C18.5,9.1 18.5,10 18.3,10.8 L20.3,12 L19,14.1 L17,12.9 C16.4,13.5 15.6,14 14.7,14.2 L14.7,16.5 L12.2,16.5 L12.2,14.2 C11.4,14 10.6,13.5 10,12.9 L8.1,14 L6.8,12 L8.8,10.8 C8.6,10 8.6,9.1 8.8,8.2 L6.8,7.1 L8.2,5 L10,6 C10.6,5.4 11.4,4.9 12.2,4.7 L12.2,2.5 L14.7,2.5 L14.7,4.7 Z M13.5,9 L13.5,10 L13.5,9 Z" id="Shape"></path>
            <path d="M6.5,21.6 L6.5,23.5 C6.5,32.9 14.1,40.5 23.5,40.5 C32.9,40.5 40.5,32.9 40.5,23.5 C40.5,14.1 32.9,6.5 23.5,6.5" id="Shape"></path>
            <polyline id="Shape" points="10.7 25.7 6.5 21.5 2.3 25.7"></polyline>
        </g>
    </g>
</svg>
